X: 11168
T: Duncan McGillivray, Chief Steward
R: jig
M: 6/8
K: Dmajor
|:d>dd A>df|e>fd e>cA|f2 g a>fd|f<gf e2 A|
d>dd A>df|e>fd e>cA|f2 g a>fd|f<ge d2A:|
|:~e2A ~f2A|g>gg g>fe|f2 g a>fd|f<gf e2 A|
~e2A ~f2A|g>gg g>fe|f2 g a>fd|f<ge d2A:|
|:d>dd f>ed|e>Af g>fe|f2 g a>fd|f<gf e2 A|
d>dd f>ed|e>Af g>fe|f2 g a>fd|f<ge d2A:|
a3 a>gf|g>gg g>fe|f2 g a>fd|f<gf e2 A|
a3 a>gf|g>gg g>fe|f2 g a>fd|f<ge d2A|
a3 a>gf|g>gg g>fe|f2 g a>fd|f<gf e2 A|
d>Af d>ef|e>Af g>fe|f2 g a>fd|f<ge d2||

